src/icons/remove.svg

<?xml version="1.0" encoding="utf-8"?>
<!-- Generated by IcoMoon.io -->
<!DOCTYPE svg PUBLIC "-//W3C//DTD SVG 1.1//EN" "http://www.w3.org/Graphics/SVG/1.1/DTD/svg11.dtd">
<svg version="1.1" xmlns="http://www.w3.org/2000/svg" xmlns:xlink="http://www.w3.org/1999/xlink" width="1024" height="1024" viewBox="0 0 1024 1024">
<path class="path1" d="M622.293 341.333l-110.293 110.293-110.293-110.293-60.373 60.373 110.293 110.293-110.293 110.293 60.373 60.373 110.293-110.293 110.293 110.293 60.373-60.373-110.293-110.293 110.293-110.293-60.373-60.373zM512 85.333c-235.733 0-426.667 190.933-426.667 426.667s190.933 426.667 426.667 426.667 426.667-190.933 426.667-426.667-190.933-426.667-426.667-426.667zM512 853.333c-188.16 0-341.333-153.173-341.333-341.333s153.173-341.333 341.333-341.333 341.333 153.173 341.333 341.333-153.173 341.333-341.333 341.333z"></path>
</svg>

<svg xmlns="http://www.w3.org/2000/svg" viewBox="0 0 1024 1024">
  <path d="M622.3 341.33L512 451.63l-110.3-110.3-60.37 60.38L451.63 512l-110.3 110.3 60.38 60.37L512 572.37l110.3 110.3 60.37-60.38L572.37 512l110.3-110.3-60.38-60.37zM512 85.33C276.27 85.33 85.33 276.27 85.33 512S276.27 938.67 512 938.67 938.67 747.73 938.67 512 747.73 85.33 512 85.33zm0 768c-188.16 0-341.33-153.17-341.33-341.33S323.84 170.67 512 170.67 853.33 323.84 853.33 512 700.16 853.33 512 853.33z"/>
</svg>
